X:10
T:How Sweet in the Woodland.2voices. JJo.010
S:J.Jones MS,1801,N.Shrops.
C:Henry Harrington
N:Voice 2 is edited as there are numerous errors in the MS version.
N:I’ve kept the note lengths the same throughout.
N:The last 4 bars are an instrumental bridge to the next verse
N:tho’ only one verse is included in the MS.
A:N Shropshire
Z:Neil Brookes 2006
W:”How sweet in the Woodland with fleet hound and horn”
W:”To waken sweet echo, and taste the fresh morn”
W:”But hard is the share my fond heart must pursue”
W:”For Daphne, fair Daphne is lost to my view”
M:3/4
L:1/8
Q:1/4=120
K:G
[V:1]|:D2|G2 BABA|G2G2A2|B2dcdc|c2 B2″^minim in MS” Bc|!
[V:2]|:z2|z6|z2z2D2|G2BABA|A2G2GA|!
%
[V:1]d2eded|cde2zc|B2 dccB|A4:|!
[V:2]B2 cBcB|A>B c2zG|G2BAAG|D4:|!
%
[V:1]B2|A2ABAB|c2 c2dc|B2 Bded|d4 B2|!
[V:2]G2|D2D2dG|A2A2BA|G2GABA|A4G2|!
%
[V:1]AG/A/ G2c2|BA/B/ A2 gd|c2B2 d/c/B/A/|G4zd|!
[V:2]D2B2A2|G2D2c2|A2G2B/A/G/F/|E4zB|!
%
[V:1]e2c2z2|B2 ABcd|g/e/d/c/ B2 A2|A2G4|]
[V:2]c2A2z2|F2 EFGA|(3cBAG2F2|F2G,4|]

